!!!OTL: Tracht des Waldbauernbuben (260), S. 557f
!!!id: T0450
**kern
*clefG2
*k[]
*C:
*M2/4
{8e
8g
8cc
8e
=2
4g
8g
8g
=3
4g
8f
8e
=4
4d}
=5
{4f
=6
4d
4g
=7
4e}
4r
=8
{4e
4g
=9
4g
8f
8e
=10
4d
8f
8f
=11
4f}
4r
=12
{4d
4a
=13
4a
8g
8f
=14
4e
8g
8g
=15
4g}
4r
=16
{8e
8g
8cc
8e
=17
4g
8g
8g
=18
4g
8f
8e
=19
4d}
=20
{4f
=21
4d
4g
=22
4e}
4r
==
*-
!!!minrhy: 8
!!!meters: 2/4 ]  ZZ[6
!!!cut: Tracht des Waldbauernbuben (260), S. 557f
!!!reg: Luxemburg
!!!trd: Singendes Volk, Esch-Alzette, 1937 posth.
!!!rhy1: XXXX  X_XX  X_XX  X_
!!!rhy2: X_  X_X_  X_0_
!!!key: T0450  08  C 2/4 ]  ZZ[6
!!!mod: SECHSTONSKALA DUR ?]  AMBITUS[7b
!!!kad: 234523
!!!akz: 3552_23_3524_2635_3552_23_
!!!fot: 'a__b__c__cs"a__b__
!!!for: 'a__b__bw_bw_a__b__
!!!fok: '^d_\__~a_~a_^d_\__
!! PHRAS[VORWIEGEND VOLLTAKTIG]
!!!fkt: Scherz-, Spiel-, Spottlied
!!!bem1: Diekirch, fff Elise Laschette, 14.1.1934,
!!!bem2: von Z&uuml;richer Buben erlernt
!! THILL; Mathias
!! PR[18] 2K[14] 2G[25] 3K[0] 3G[7] 4A[4] 4Ü[0] 5A[0] 6K[0] 6G[0]
!! 7K[0] 7G[0] 8A[0] MEHR[0] SI[50] ABS[28] SR[39] SP[11]
!! ST[8] 2k[0] 2g[7] 3k[11] 3g[7] 4d[7] 4ü[0] 5d[0] 6k[0] 6g[0]
!! 7k[0] 7g[0] 8d[0] mehr[0] si[32] dm[+18] sr[7] sp[25]
!! 1F[7] 2F[76] 3F[10] 4F[0] LF[0] 2P[7] 3P[0] 4P[0] TRI[0] DF[4] AB[29]
!! TF[0] U3K[0] U3[0] U4[0] U4Ü[0] U5[0] U6K[0] U6[0] U7K[0] U7[7]
!! N1[21] N2K[0] N2[10] N3K[0] N3[17] N4[10] N4Ü[0] N5[17] N6K[0] N6[10]
!!!n7k: 0] N7[3] O1[3] O2K[0] O2[0] O3K[0] O3[0] HÖ[0
!!!RNB: symbol: &uuml;  = u umlaut (UTF-8: Ã¼)
